portfolio/ecw/static/images/icons/icon-tip.svg

<?xml version="1.0" encoding="UTF-8"?>
<svg width="57px" height="61px" viewBox="0 0 57 61" version="1.1" xmlns="http://www.w3.org/2000/svg" xmlns:xlink="http://www.w3.org/1999/xlink">
    <!-- Generator: Sketch 54.1 (76490) - https://sketchapp.com -->
    <title>ico_tipp</title>
    <desc>Created with Sketch.</desc>
    <defs>
        <polygon id="path-1" points="0.00843450479 0.0508357349 43.8706709 0.0508357349 43.8706709 48.9915274 0.00843450479 48.9915274"></polygon>
    </defs>
    <g id="Desktop-+-Mobile" stroke="none" stroke-width="1" fill="none" fill-rule="evenodd">
        <g id="WAT-ECW-MS-StartSeite-Home" transform="translate(-169.000000, -1358.000000)">
            <g id="Intro" transform="translate(0.000000, 865.000000)">
                <g id="Tipp-Copy" transform="translate(0.000000, 477.000000)">
                    <g id="ico_tipp" transform="translate(169.000000, 16.000000)">
                        <g id="Group-5" transform="translate(0.000000, 12.000000)">
                            <mask id="mask-2" fill="white">
                                <use xlink:href="#path-1"></use>
                            </mask>
                            <g id="Clip-2"></g>
                            <path d="M34.7389137,28.9481268 C34.4213546,29.1581066 34.231016,29.5150865 34.2328435,29.8970605 L34.2328435,35.6358501 L22.0084345,35.6358501 L22.0084345,29.8292795 C22.010262,29.4473055 21.8199233,29.0903256 21.5023642,28.8803458 C17.1968307,25.9901931 14.5814313,21.1579741 14.5073482,15.9567723 C14.7234121,8.40441787 20.9934824,2.45790778 28.5118594,2.67494813 C35.7265942,2.88323343 41.5265815,8.70943228 41.7339297,15.9567723 C41.6709521,21.1701182 39.054147,26.0173055 34.7389137,28.9142363 L34.7389137,28.9481268 Z M34.2328435,40.8549856 L22.0084345,40.8549856 L22.0084345,37.8613256 L34.2215974,37.8613256 L34.2328435,40.8549856 Z M30.7915655,46.7745245 L25.4384665,46.7745245 L22.9868371,43.1143516 L33.2319489,43.1143516 L30.7915655,46.7745245 Z M28.115016,0.0508357349 C19.3538147,0.0570489914 12.2530863,7.18986744 12.246901,15.9906628 C12.3252013,21.7353833 15.1076038,27.1033545 19.7479872,30.461902 L19.7479872,41.9733718 C19.7517827,42.1049798 19.7783514,42.2350346 19.8267093,42.357464 L19.8267093,42.4478386 C19.8461086,42.494438 19.8687412,42.5397666 19.8941853,42.5834006 L23.8527796,48.5029395 C24.0622364,48.8143084 24.4121278,49.0005648 24.7861981,49 L31.3313738,49 C31.7054441,49.0005648 32.0553355,48.8143084 32.2647923,48.5029395 L36.2233866,42.5834006 C36.2488307,42.5397666 36.2714633,42.494438 36.2908626,42.4478386 L36.2908626,42.357464 C36.3392204,42.2350346 36.3657891,42.1049798 36.3695847,41.9733718 L36.3695847,30.461902 C41.0099681,27.1033545 43.7923706,21.7353833 43.8706709,15.9906628 C43.8647668,7.23378386 36.8322173,0.119040346 28.115016,0.0508357349 L28.115016,0.0508357349 Z" id="Fill-1" fill="#000000" mask="url(#mask-2)"></path>
                            <path d="M28.5648562,5.16829971 C27.9437955,5.16829971 27.4402556,5.67411527 27.4402556,6.29798271 C27.4402556,6.92185014 27.9437955,7.42766571 28.5648562,7.42766571 C33.2391182,7.43387896 37.0269137,11.2387925 37.033099,15.9341787 C37.033099,16.5580461 37.536639,17.0638617 38.1576997,17.0638617 C38.7787604,17.0638617 39.2823003,16.5580461 39.2823003,15.9341787 C39.276115,9.99091643 34.4813802,5.17451297 28.5648562,5.16829971" id="Fill-3" fill="#000000" mask="url(#mask-2)"></path>
                            <path d="M10.3463259,15.9341787 C10.3463259,15.3103112 9.84278594,14.8044957 9.22172524,14.8044957 L1.12460064,14.8044957 C0.503539936,14.8044957 0,15.3103112 0,15.9341787 C0,16.5580461 0.503539936,17.0638617 1.12460064,17.0638617 L9.22172524,17.0638617 C9.84278594,17.0638617 10.3463259,16.5580461 10.3463259,15.9341787" id="Fill-4" fill="#000000" mask="url(#mask-2)"></path>
                        </g>
                        <path d="M55.9130435,27 L48.0869565,27 C47.4866848,27 47,27.44775 47,28 C47,28.55225 47.4866848,29 48.0869565,29 L55.9130435,29 C56.5133152,29 57,28.55225 57,28 C57,27.44775 56.5133152,27 55.9130435,27" id="Fill-6" fill="#000000"></path>
                        <path d="M14.050092,40.3652424 L8.38740551,46.050092 C7.92253331,46.4481977 7.8683721,47.1477223 8.26647779,47.6125945 C8.66458349,48.0774667 9.36410811,48.1316279 9.82898032,47.7335222 C9.87233699,47.6963989 9.91278475,47.6559512 9.94990804,47.6125945 L15.6125945,41.949908 C16.0774667,41.5518023 16.1316279,40.8522777 15.7335222,40.3874055 C15.3354165,39.9225333 14.6358919,39.8683721 14.1710197,40.2664778 C14.127663,40.3036011 14.0872152,40.3440488 14.050092,40.3874055 L14.050092,40.3652424" id="Fill-7" fill="#000000"></path>
                        <path d="M42.1290025,14.9886516 C42.4302939,14.9903512 42.7199646,14.8720874 42.933958,14.6600623 L48.7273704,8.87009124 C49.1346666,8.39476974 49.079255,7.67952137 48.603651,7.27246714 C48.179207,6.90917762 47.5532407,6.90917762 47.1287968,7.27246714 L41.3353844,13.0624382 C40.8908165,13.5030595 40.8878404,14.220574 41.3287236,14.6648778 C41.543284,14.8810103 41.8357889,15.0016819 42.1403399,14.9999823 L42.1290025,14.9886516" id="Fill-8" fill="#000000"></path>
                        <path d="M42.9379171,40.3844212 C42.5422596,39.9231301 41.8470367,39.8693861 41.3850232,40.264425 C40.9230097,40.659464 40.8691815,41.3535999 41.2648391,41.814891 C41.3017341,41.8579137 41.3419331,41.8980499 41.3850232,41.9348872 L47.0128871,47.5539518 C47.374403,48.0423211 48.0641193,48.1455481 48.5532533,47.7845974 C49.0423874,47.4236467 49.145776,46.7350089 48.7842601,46.2466396 C48.7223095,46.1630684 48.6486572,46.088569 48.5657811,46.0254783 L42.9379171,40.3844212" id="Fill-9" fill="#000000"></path>
                        <path d="M14.1140026,14.7252149 C14.593367,15.1357313 15.3146989,15.0798817 15.7252154,14.6005174 C16.0915949,14.1727176 16.0915949,13.5418021 15.7252154,13.1140023 L9.88599741,7.27478508 C9.40663304,6.86426868 8.68530108,6.92011833 8.27478463,7.39948265 C7.90840512,7.82728244 7.90840512,8.45819787 8.27478463,8.88599767 L14.1140026,14.7252149" id="Fill-10" fill="#000000"></path>
                        <path d="M29.0002309,10 C29.5523534,10 30,9.51646868 30,8.92008639 L30,1.07991361 C30,0.483531317 29.5523534,0 29.0002309,0 C28.4481085,0 28.0004619,0.483531317 28.0004619,1.07991361 L28.0004619,8.88768898 C27.9838407,9.4838013 28.4178655,9.98164147 28.969738,9.99946004 C28.9799856,9.99986501 28.9901083,10 29.0002309,10" id="Fill-11" fill="#000000"></path>
                    </g>
                </g>
            </g>
        </g>
    </g>
</svg>

<svg width="57" height="61" xmlns="http://www.w3.org/2000/svg" xmlns:xlink="http://www.w3.org/1999/xlink"><defs><path id="a" d="M.008.05h43.863v48.942H.008z"/></defs><g fill="none" fill-rule="evenodd"><g transform="translate(0 12)"><mask id="b" fill="#fff"><use xlink:href="#a"/></mask><path d="M34.739 28.948a1.13 1.13 0 0 0-.506.95v5.738H22.008v-5.807a1.13 1.13 0 0 0-.506-.949 15.834 15.834 0 0 1-6.995-12.923c.216-7.553 6.486-13.5 14.005-13.282 7.215.208 13.015 6.034 13.222 13.282a15.834 15.834 0 0 1-6.995 12.957v.034zm-.506 11.907H22.008v-2.994h12.214l.01 2.994zm-3.441 5.92h-5.354l-2.451-3.66h10.245l-2.44 3.66zM28.115.05c-8.761.007-15.862 7.14-15.868 15.94a18.167 18.167 0 0 0 7.501 14.47v11.512c.004.132.03.262.079.384v.09c.02.047.042.093.067.136l3.959 5.92c.21.311.56.498.933.497h6.545c.374 0 .724-.186.934-.497l3.958-5.92c.026-.043.048-.089.068-.135v-.09c.048-.123.075-.253.079-.385v-11.51a18.167 18.167 0 0 0 7.5-14.471C43.866 7.234 36.833.119 28.116.05z" fill="#000" mask="url(#b)"/><path d="M28.565 5.168c-.621 0-1.125.506-1.125 1.13 0 .624.504 1.13 1.125 1.13 4.674.006 8.462 3.81 8.468 8.506 0 .624.504 1.13 1.125 1.13.62 0 1.124-.506 1.124-1.13-.006-5.943-4.8-10.76-10.717-10.766M10.346 15.934c0-.624-.503-1.13-1.124-1.13H1.125c-.621 0-1.125.506-1.125 1.13 0 .624.504 1.13 1.125 1.13h8.097c.62 0 1.124-.506 1.124-1.13" fill="#000" mask="url(#b)"/></g><path d="M55.913 27h-7.826c-.6 0-1.087.448-1.087 1s.487 1 1.087 1h7.826c.6 0 1.087-.448 1.087-1s-.487-1-1.087-1M14.05 40.365L8.387 46.05a1.108 1.108 0 1 0 1.563 1.563l5.663-5.663a1.108 1.108 0 1 0-1.563-1.563v-.022m28.079-25.376c.301.001.591-.117.805-.329l5.793-5.79a1.133 1.133 0 0 0-1.598-1.598l-5.794 5.79A1.133 1.133 0 0 0 42.14 15l-.011-.011m.809 25.395a1.103 1.103 0 0 0-1.553-.12 1.098 1.098 0 0 0 0 1.67l5.628 5.62a1.103 1.103 0 0 0 1.54.23 1.099 1.099 0 0 0 .013-1.759l-5.628-5.64m-28.824-25.66a1.143 1.143 0 0 0 1.611-1.611l-5.839-5.84a1.143 1.143 0 0 0-1.611 1.612l5.839 5.84M29 10c.552 0 1-.484 1-1.08V1.08C30 .484 29.552 0 29 0s-1 .484-1 1.08v7.808c-.016.596.418 1.094.97 1.111L29 10" fill="#000"/></g></svg>
